public/home/logo4.svg

<svg width="216" height="65" viewBox="0 0 216 65" fill="none" xmlns="http://www.w3.org/2000/svg">
<g clip-path="url(#clip0_561_50)">
<path d="M77.2325 27.4139C78.1746 28.3561 78.1746 29.8838 77.2325 30.826L60.1141 47.9446C59.1719 48.8867 57.6442 48.8867 56.702 47.9446L45.9293 37.1719C44.9871 36.2294 44.9871 34.7019 45.9293 33.7597L63.0478 16.6412C63.99 15.699 65.5177 15.699 66.4599 16.6412L77.2325 27.4139Z" fill="white"/>
<path d="M81.2533 30.826C82.1955 29.8838 82.1955 28.3561 81.2533 27.4139L73.3321 19.4928L76.1839 16.6412C77.126 15.699 78.6537 15.699 79.5958 16.6412L90.3684 27.4139C91.3106 28.3561 91.3106 29.8838 90.3684 30.826L73.2501 47.9446C72.3079 48.8867 70.7803 48.8867 69.8377 47.9446L66.9863 45.0928L81.2533 30.826Z" fill="white"/>
<path d="M109.26 33.4974C110.169 33.667 110.916 34.1217 111.502 34.8615C112.088 35.6013 112.381 36.449 112.381 37.4049C112.381 38.2678 112.165 39.0306 111.734 39.6937C111.317 40.3411 110.709 40.8494 109.907 41.2193C109.106 41.5893 108.158 41.7742 107.063 41.7742H100.104V25.6367H106.763C107.857 25.6367 108.797 25.814 109.583 26.1685C110.385 26.523 110.986 27.0162 111.387 27.6482C111.803 28.2801 112.011 28.9968 112.011 29.7983C112.011 30.7385 111.756 31.5246 111.248 32.1565C110.755 32.7884 110.092 33.2354 109.26 33.4974ZM103.341 32.2952H106.3C107.071 32.2952 107.665 32.1257 108.081 31.7866C108.497 31.4321 108.705 30.9311 108.705 30.2838C108.705 29.6365 108.497 29.1355 108.081 28.781C107.665 28.4265 107.071 28.2493 106.3 28.2493H103.341V32.2952ZM106.601 39.1388C107.387 39.1388 107.996 38.9538 108.427 38.5839C108.875 38.2139 109.098 37.69 109.098 37.0116C109.098 36.3179 108.867 35.7787 108.404 35.3933C107.942 34.9925 107.318 34.7922 106.531 34.7922H103.341V39.1388H106.601Z" fill="white"/>
<path d="M119.723 41.9829C118.49 41.9829 117.38 41.7131 116.394 41.1735C115.408 40.6186 114.629 39.8405 114.059 38.8384C113.504 37.8367 113.227 36.6807 113.227 35.3706C113.227 34.0605 113.512 32.9045 114.082 31.9026C114.668 30.9008 115.461 30.1301 116.463 29.5906C117.465 29.0358 118.583 28.7583 119.816 28.7583C121.048 28.7583 122.166 29.0358 123.168 29.5906C124.17 30.1301 124.956 30.9008 125.526 31.9026C126.112 32.9045 126.405 34.0605 126.405 35.3706C126.405 36.6807 126.104 37.8367 125.503 38.8384C124.917 39.8405 124.116 40.6186 123.098 41.1735C122.097 41.7131 120.972 41.9829 119.723 41.9829ZM119.723 39.1621C120.309 39.1621 120.856 39.0234 121.364 38.7459C121.888 38.4532 122.305 38.0217 122.613 37.4515C122.921 36.8809 123.075 36.1873 123.075 35.3706C123.075 34.1529 122.752 33.2204 122.104 32.5731C121.473 31.9103 120.694 31.5789 119.769 31.5789C118.844 31.5789 118.066 31.9103 117.434 32.5731C116.818 33.2204 116.509 34.1529 116.509 35.3706C116.509 36.5882 116.81 37.5283 117.411 38.191C118.028 38.8384 118.798 39.1621 119.723 39.1621Z" fill="white"/>
<path d="M131.09 30.9545C131.506 30.2764 132.046 29.7446 132.709 29.3592C133.387 28.9739 134.158 28.7812 135.021 28.7812V32.1799H134.165C133.148 32.1799 132.377 32.4188 131.853 32.8966C131.345 33.3744 131.09 34.2067 131.09 35.3935V41.7745H127.854V28.9662H131.09V30.9545Z" fill="white"/>
<path d="M135.444 35.3242C135.444 34.0295 135.699 32.8812 136.207 31.8794C136.731 30.8775 137.44 30.1069 138.334 29.5674C139.228 29.0279 140.222 28.7582 141.316 28.7582C142.149 28.7582 142.943 28.9432 143.698 29.3131C144.453 29.6676 145.054 30.1454 145.501 30.7465V24.666H148.784V41.7746H145.501V39.879C145.101 40.5107 144.538 41.0194 143.814 41.4046C143.089 41.7902 142.249 41.9828 141.294 41.9828C140.215 41.9828 139.228 41.7054 138.334 41.1505C137.44 40.5956 136.731 39.8171 136.207 38.8154C135.699 37.798 135.444 36.6343 135.444 35.3242ZM145.525 35.3705C145.525 34.5844 145.37 33.914 145.062 33.3591C144.754 32.7888 144.338 32.3572 143.814 32.0643C143.29 31.7561 142.727 31.602 142.126 31.602C141.525 31.602 140.97 31.7484 140.461 32.0412C139.952 32.3341 139.536 32.7656 139.213 33.336C138.905 33.8908 138.75 34.5536 138.75 35.3242C138.75 36.0951 138.905 36.7731 139.213 37.3589C139.536 37.9291 139.952 38.3682 140.461 38.6767C140.985 38.9847 141.54 39.1391 142.126 39.1391C142.727 39.1391 143.29 38.9927 143.814 38.6996C144.338 38.3916 144.754 37.9597 145.062 37.4052C145.37 36.8346 145.525 36.1566 145.525 35.3705Z" fill="white"/>
<path d="M162.927 35.0931C162.927 35.5555 162.896 35.9717 162.835 36.3417H153.471C153.549 37.2665 153.872 37.9908 154.442 38.5147C155.013 39.0391 155.714 39.3008 156.546 39.3008C157.749 39.3008 158.604 38.7845 159.113 37.7519H162.604C162.234 38.9848 161.525 40.0021 160.477 40.8035C159.429 41.5897 158.141 41.9829 156.615 41.9829C155.383 41.9829 154.273 41.7131 153.286 41.1735C152.315 40.6186 151.552 39.8405 150.998 38.8384C150.458 37.8367 150.188 36.6807 150.188 35.3706C150.188 34.0451 150.458 32.8813 150.998 31.8795C151.537 30.8776 152.292 30.107 153.263 29.5675C154.234 29.028 155.352 28.7583 156.615 28.7583C157.833 28.7583 158.92 29.0204 159.875 29.5444C160.847 30.0684 161.594 30.816 162.118 31.787C162.658 32.7426 162.927 33.8447 162.927 35.0931ZM159.575 34.1683C159.559 33.336 159.259 32.6733 158.673 32.18C158.088 31.6714 157.371 31.4171 156.523 31.4171C155.722 31.4171 155.044 31.6637 154.489 32.1569C153.949 32.6347 153.618 33.3052 153.494 34.1683H159.575Z" fill="white"/>
<path d="M167.602 30.9545C168.018 30.2764 168.558 29.7446 169.22 29.3592C169.899 28.9739 170.669 28.7812 171.533 28.7812V32.1799H170.677C169.66 32.1799 168.889 32.4188 168.365 32.8966C167.856 33.3744 167.602 34.2067 167.602 35.3935V41.7745H164.365V28.9662H167.602V30.9545Z" fill="white"/>
</g>
<defs>
<clipPath id="clip0_561_50">
<rect width="127" height="34" fill="white" transform="translate(45 15)"/>
</clipPath>
</defs>
</svg>

<svg width="216" height="65" fill="none" xmlns="http://www.w3.org/2000/svg"><g clip-path="url(#a)" fill="#fff"><path d="M77.233 27.414c.942.942.942 2.47 0 3.412L60.114 47.945a2.413 2.413 0 0 1-3.412 0L45.929 37.172a2.413 2.413 0 0 1 0-3.412L63.048 16.64a2.413 2.413 0 0 1 3.412 0l10.773 10.773Z"/><path d="M81.253 30.826a2.413 2.413 0 0 0 0-3.412l-7.92-7.921 2.85-2.852a2.413 2.413 0 0 1 3.413 0l10.772 10.773c.943.942.943 2.47 0 3.412L73.25 47.945a2.413 2.413 0 0 1-3.412 0l-2.852-2.852 14.267-14.267ZM109.26 33.497c.909.17 1.656.625 2.242 1.364.586.74.879 1.588.879 2.544 0 .863-.216 1.626-.647 2.289-.417.647-1.025 1.155-1.827 1.525-.801.37-1.749.555-2.844.555h-6.959V25.637h6.659c1.094 0 2.034.177 2.82.532.802.354 1.403.847 1.804 1.48.416.631.624 1.348.624 2.15 0 .94-.255 1.726-.763 2.358-.493.631-1.156 1.078-1.988 1.34Zm-5.919-1.202h2.959c.771 0 1.365-.17 1.781-.508.416-.355.624-.856.624-1.503 0-.647-.208-1.148-.624-1.503-.416-.354-1.01-.532-1.781-.532h-2.959v4.046Zm3.26 6.844c.786 0 1.395-.185 1.826-.555.448-.37.671-.894.671-1.572 0-.694-.231-1.233-.694-1.619-.462-.4-1.086-.6-1.873-.6h-3.19v4.346h3.26ZM119.723 41.983c-1.233 0-2.343-.27-3.329-.81a6.07 6.07 0 0 1-2.335-2.335c-.555-1.001-.832-2.157-.832-3.467s.285-2.467.855-3.468a6.024 6.024 0 0 1 2.381-2.312c1.002-.555 2.12-.833 3.353-.833 1.232 0 2.35.278 3.352.833a5.865 5.865 0 0 1 2.358 2.312c.586 1.002.879 2.157.879 3.468 0 1.31-.301 2.466-.902 3.467a6.14 6.14 0 0 1-2.405 2.335c-1.001.54-2.126.81-3.375.81Zm0-2.82a3.37 3.37 0 0 0 1.641-.417 3.162 3.162 0 0 0 1.249-1.294c.308-.571.462-1.265.462-2.081 0-1.218-.323-2.15-.971-2.798-.631-.663-1.41-.994-2.335-.994s-1.703.331-2.335.994c-.616.647-.925 1.58-.925 2.798 0 1.217.301 2.157.902 2.82.617.647 1.387.971 2.312.971ZM131.09 30.954a4.58 4.58 0 0 1 1.619-1.595c.678-.385 1.449-.578 2.312-.578v3.399h-.856c-1.017 0-1.788.239-2.312.717-.508.477-.763 1.31-.763 2.497v6.38h-3.236V28.967h3.236v1.988ZM135.444 35.324c0-1.294.255-2.443.763-3.445.524-1.002 1.233-1.772 2.127-2.312.894-.54 1.888-.809 2.982-.809.833 0 1.627.185 2.382.555.755.355 1.356.832 1.803 1.434v-6.081h3.283v17.109h-3.283v-1.896c-.4.632-.963 1.14-1.687 1.526-.725.385-1.565.578-2.52.578a5.503 5.503 0 0 1-2.96-.832c-.894-.555-1.603-1.334-2.127-2.336-.508-1.017-.763-2.18-.763-3.49Zm10.081.047c0-.787-.155-1.457-.463-2.012-.308-.57-.724-1.002-1.248-1.295a3.274 3.274 0 0 0-1.688-.462c-.601 0-1.156.146-1.665.44-.509.292-.925.724-1.248 1.294-.308.555-.463 1.218-.463 1.988 0 .771.155 1.45.463 2.035.323.57.739 1.01 1.248 1.318a3.235 3.235 0 0 0 1.665.462c.601 0 1.164-.146 1.688-.44a3.36 3.36 0 0 0 1.248-1.294c.308-.57.463-1.248.463-2.035ZM162.927 35.093c0 .462-.031.879-.092 1.249h-9.364c.078.925.401 1.649.971 2.173.571.524 1.272.786 2.104.786 1.203 0 2.058-.517 2.567-1.55h3.491c-.37 1.234-1.079 2.251-2.127 3.053-1.048.786-2.336 1.179-3.862 1.179-1.232 0-2.342-.27-3.329-.81a5.947 5.947 0 0 1-2.288-2.335c-.54-1.001-.81-2.157-.81-3.467 0-1.326.27-2.49.81-3.492a5.642 5.642 0 0 1 2.265-2.312c.971-.539 2.089-.809 3.352-.809 1.218 0 2.305.262 3.26.786a5.418 5.418 0 0 1 2.243 2.243c.54.956.809 2.058.809 3.306Zm-3.352-.925c-.016-.832-.316-1.495-.902-1.988-.585-.509-1.302-.763-2.15-.763-.801 0-1.479.247-2.034.74-.54.478-.871 1.148-.995 2.011h6.081ZM167.602 30.954a4.586 4.586 0 0 1 1.618-1.595c.679-.385 1.449-.578 2.313-.578v3.399h-.856c-1.017 0-1.788.239-2.312.717-.509.477-.763 1.31-.763 2.497v6.38h-3.237V28.967h3.237v1.988Z"/></g><defs><clipPath id="a"><path fill="#fff" transform="translate(45 15)" d="M0 0h127v34H0z"/></clipPath></defs></svg>
